svg/OSM-icons/craft #ff8000 °ffffff !label=encrafts,deHerstellung, Produktion/16070;craft=scaffolder;[addr];[contact];!label=enscaffolder,deGerüst- bauer.svg

<svg xmlns="http://www.w3.org/2000/svg" viewBox="0 0 580 580" enable-background="new 0 0 580 580"><path fill="#111" stroke="#eee" stroke-width="3.408" d="m66.28 1.768c-41.34 0-64.57 21.371-64.57 65.04v450.12c0 40.844 20.896 62.23 62.19 62.23h452.02c41.31 0 62.23-20.314 62.23-62.23v-450.12c0-42.603-20.923-65.04-63.52-65.04-.003 0-448.5-.143-448.35 0z"/><path fill="#fff" d="m382.47 124.89l-1.349-.373v-43.04l1.349-.285-1.349-.372v-27.682h-6.61v25.854l-38.56-10.659v-30.618h-6.608v30.36l-76.02 14.604v-8.607h-6.609v9.877l-40.764 7.83v-23.22h-6.608v24.484l-1.823.351 1.823.452v42.9l-1.823.351 1.823.451v11.82l-1.823.351 1.823.451v64.845l-1.823.35 1.823.452v54.28l-1.823.35 1.823.452v78.74l-1.823.351 1.823.451v12.148l-1.823.349 1.823.453v76.65l-1.823.35 1.823.452v79.4h6.608v-77.76l40.764 10.11v62.14h6.609v-61.927l76.02-13.513v102.98h6.608v-104.26l38.56-8.15v98.09h6.61v-99.49l1.349-.284-1.349-.373v-76.8l1.349-.285-1.349-.372v-12.293l1.349-.284-1.349-.372v-78.888l1.349-.285-1.349-.372v-54.43l1.349-.286-1.349-.372v-64.986l1.349-.284-1.349-.373v-11.967l1.349-.284m-7.959-2.201l-38.56-10.659v-21.01l38.56-8.15v39.819m-121.18-16.877l76.02-13.514v19.475l-76.02 14.603v-20.564zm0 35.429l76.02-14.602v7.123l-76.02 13.512v-6.03m76.02-5.241v10.387l-76.02 13.514v-10.386l76.02-13.515m0-21.983v10.378l-76.02 14.603v-10.378l76.02-14.603m-82.63 26.25l-15.357 2.95-23.583-5.849 38.94-7.48v10.379m0 2.243v4.516l-10.261-2.544 10.261-1.972m0 6.786v10.354l-38.94-9.659 23.523-4.519 15.417 3.824m6.61 12.84l76.02-13.515v41.42l-76.02 14.604v-42.506m0 65.64l76.02-13.513v30.856l-76.02 14.603v-31.946m76.02 19.588v19.746l-76.02 13.514v-18.657l76.02-14.603m-82.63 33.01l-38.94-9.658 38.94-7.479v17.14m6.61 2.487l76.02-13.514v55.32l-76.02 14.604v-56.41m76.02 44.05v10.705l-76.02 14.604v-10.705l76.02-14.604m-76.02 27.553l76.02-14.604v6.797l-76.02 13.514v-5.707m76.02-5.57v10.712l-76.02 13.512v-10.711l76.02-13.513m-82.63 4.595l-14.615 2.809-24.326-6.03 38.94-7.48.0001 10.703m0 2.244v4.188l-9.518-2.359 9.518-1.829m0 6.458v10.679l-38.94-9.655 24.265-4.662 14.675 3.638m6.61 13.166l76.02-13.514v53.23l-76.02 14.604v-54.32m82.63-27.74l15.285-3.23 21.928 6.06-37.21 7.866v-10.698m0-2.253v-5.203l10.67 2.948-10.67 2.255m0-7.488v-10.663l37.21 10.286-21.856 4.621-15.357-4.244m0-90.21l37.21 10.286-37.21 7.868v-18.15m0-112.95l15.953-3.372 21.26 5.876-37.21 7.867v-10.371m0-2.252v-5.53l11.336 3.133-11.336 2.397m0-7.816v-10.337l37.21 10.286-21.19 4.479-16.03-4.428m37.21-43.752l-37.21 7.867v-18.15l37.21 10.287m-43.823-10.587v19.746l-76.02 13.514v-18.658l76.02-14.602m-82.63 15.872v17.14l-38.94-9.659 38.94-7.48m-40.763 9.298l40.764 10.111v22.05l-40.764 7.83v-39.991m0 43.703l20.248 5.02-20.248 3.89v-8.911m0 12.622l40.764 10.11v43.992l-40.764 7.83v-61.932m0 65.64l40.764 10.11v33.432l-40.764 7.831v-51.37m0 55.08l40.764 10.112v57.895l-40.764 7.829v-75.836m0 79.55l20.99 5.205-20.99 4.03v-9.236m0 12.947l40.764 10.11v55.806l-40.764 7.83v-73.74m168.56 60.958l-38.56-10.657v-54.767l38.56-8.149v73.57m0-77.46l-18.588-5.138 18.588-3.93v9.07m0-12.948l-38.56-10.658v-56.855l38.56-8.15v75.66m0-79.55l-38.56-10.657v-32.394l38.56-8.151v51.2m0-55.08l-38.558-10.659v-42.953l38.56-8.15-.002 61.762m0-65.65l-17.918-4.953 17.918-3.788v8.741"/></svg>

<?xml version="1.0" encoding="utf-8"?>
<!-- Generator: Adobe Illustrator 15.0.0, SVG Export Plug-In . SVG Version: 6.00 Build 0)  -->
<!DOCTYPE svg PUBLIC "-//W3C//DTD SVG 1.1//EN" "http://www.w3.org/Graphics/SVG/1.1/DTD/svg11.dtd">
<svg version="1.1" id="Layer_1" xmlns="http://www.w3.org/2000/svg" xmlns:xlink="http://www.w3.org/1999/xlink" x="0px" y="0px"
	 width="580px" height="580px" viewBox="0 0 580 580" enable-background="new 0 0 580 580" xml:space="preserve">
<g id="Layer_2_1_">
	<g id="Layer_2">
		<g id="g1327">
			<path id="path1329" fill="#111111" stroke="#EEEEEE" stroke-width="3.408" d="M66.275,1.768
				c-41.335,0-64.571,21.371-64.571,65.036v450.123c0,40.844,20.896,62.229,62.192,62.229h452.024
				c41.307,0,62.229-20.314,62.229-62.229V66.804c0-42.603-20.923-65.036-63.521-65.036C514.625,1.768,66.133,1.625,66.275,1.768z"
				/>
		</g>
	</g>
</g>
<g id="Layer_1_1_">
	<path fill="#FFFFFF" d="M382.474,124.892l-1.349-0.373V81.475l1.349-0.285l-1.349-0.372V53.136h-6.61V78.99l-38.56-10.659V37.713
		h-6.608v30.36l-76.017,14.604v-8.607h-6.609v9.877l-40.764,7.83V68.56h-6.608v24.484l-1.823,0.351l1.823,0.452v42.9l-1.823,0.351
		l1.823,0.451v11.82l-1.823,0.351l1.823,0.451v64.845l-1.823,0.35l1.823,0.452V270.1l-1.823,0.35l1.823,0.452v78.744l-1.823,0.351
		l1.823,0.451v12.148l-1.823,0.349l1.823,0.453v76.652l-1.823,0.35l1.823,0.452v79.401h6.608v-77.762l40.764,10.108v62.144h6.609
		v-61.927l76.017-13.513v102.981h6.608v-104.26l38.56-8.15v98.089h6.61v-99.487l1.349-0.284l-1.349-0.373v-76.797l1.349-0.285
		l-1.349-0.372v-12.293l1.349-0.284l-1.349-0.372v-78.888l1.349-0.285l-1.349-0.372v-54.427l1.349-0.286l-1.349-0.372V137.8
		l1.349-0.284l-1.349-0.373v-11.967L382.474,124.892z M374.515,122.691l-38.56-10.659v-21.01l38.56-8.15V122.691z M253.331,105.814
		L329.347,92.3v19.475l-76.017,14.603V105.814z M253.331,141.243l76.017-14.602v7.123l-76.017,13.512V141.243z M329.347,136.002
		v10.387l-76.017,13.514v-10.386L329.347,136.002z M329.347,114.019v10.378L253.331,139v-10.378L329.347,114.019z M246.721,140.27
		l-15.357,2.95l-23.583-5.849l38.94-7.48V140.27L246.721,140.27z M246.721,142.513v4.516l-10.261-2.544L246.721,142.513z
		 M246.721,149.299v10.354l-38.94-9.659l23.523-4.519L246.721,149.299z M253.331,162.139l76.017-13.515v41.417l-76.017,14.604
		V162.139z M253.331,227.782l76.017-13.513v30.856l-76.017,14.603V227.782z M329.347,247.37v19.746l-76.017,13.514v-18.657
		L329.347,247.37z M246.721,280.381l-38.94-9.658l38.94-7.479V280.381z M253.331,282.868l76.017-13.514v55.317l-76.017,14.604
		V282.868z M329.347,326.916v10.705l-76.017,14.604V341.52L329.347,326.916z M253.331,354.469l76.017-14.604v6.797l-76.017,13.514
		V354.469z M329.347,348.899v10.712l-76.017,13.512v-10.711L329.347,348.899z M246.721,353.494l-14.615,2.809l-24.326-6.032
		l38.94-7.48L246.721,353.494L246.721,353.494z M246.721,355.738v4.188l-9.518-2.359L246.721,355.738z M246.721,362.196v10.679
		l-38.94-9.655l24.265-4.662L246.721,362.196z M253.331,375.362l76.017-13.514v53.229l-76.017,14.604V375.362z M335.957,347.622
		l15.285-3.23l21.928,6.062l-37.213,7.866V347.622z M335.957,345.369v-5.203l10.67,2.948L335.957,345.369z M335.957,337.881v-10.663
		l37.213,10.286l-21.856,4.621L335.957,337.881z M335.957,247.671l37.213,10.286l-37.213,7.868V247.671z M335.957,134.724
		l15.953-3.372l21.26,5.876l-37.213,7.867V134.724z M335.957,132.472v-5.53l11.336,3.133L335.957,132.472z M335.957,124.656v-10.337
		l37.213,10.286l-21.188,4.479L335.957,124.656z M373.17,80.904l-37.213,7.867V70.617L373.17,80.904z M329.347,70.317v19.746
		l-76.017,13.514V84.919L329.347,70.317z M246.721,86.189v17.139l-38.94-9.659L246.721,86.189z M205.958,95.487l40.764,10.111v22.05
		l-40.764,7.83V95.487z M205.958,139.19l20.248,5.021l-20.248,3.89V139.19z M205.958,151.812l40.764,10.11v43.992l-40.764,7.83
		V151.812z M205.958,217.457l40.764,10.109v33.432l-40.764,7.831V217.457z M205.958,272.54l40.764,10.112v57.895l-40.764,7.829
		V272.54z M205.958,352.089l20.99,5.205l-20.99,4.031V352.089z M205.958,365.036l40.764,10.108v55.806l-40.764,7.83V365.036z
		 M374.515,425.994l-38.56-10.657V360.57l38.56-8.149V425.994z M374.515,348.538l-18.588-5.138l18.588-3.93V348.538z
		 M374.515,335.59l-38.56-10.658v-56.855l38.56-8.15V335.59z M374.515,256.043l-38.56-10.657v-32.394l38.56-8.151V256.043z
		 M374.515,200.959L335.957,190.3v-42.953l38.56-8.15L374.515,200.959L374.515,200.959z M374.515,135.314l-17.918-4.953
		l17.918-3.788V135.314z"/>
</g>
</svg>
